symbols/web/water_drop/materialsymbolsrounded/water_drop_wght700gradN25_24px.svg

<svg xmlns="http://www.w3.org/2000/svg" height="24" width="24"><path d="M12 22.725q-3.425 0-6.075-2.413-2.65-2.412-2.65-6.512 0-2.425 1.863-5.362Q7 5.5 10.725 2.125q.25-.225.587-.338.338-.112.688-.112.35 0 .688.112.337.113.587.338Q17 5.5 18.863 8.438q1.862 2.937 1.862 5.362 0 4.1-2.637 6.512Q15.45 22.725 12 22.725Zm0-3.025q2.425 0 4.062-1.65Q17.7 16.4 17.7 13.8q0-1.625-1.412-3.788Q14.875 7.85 12 5.1q-2.875 2.75-4.287 4.912Q6.3 12.175 6.3 13.8q0 2.6 1.638 4.25Q9.575 19.7 12 19.7Zm0-5.95Zm.35 5.125q.425-.025.712-.313.288-.287.288-.687 0-.425-.312-.725-.313-.3-.763-.275-1.175.075-2-.538-.825-.612-1.1-1.887-.05-.325-.312-.575-.263-.25-.688-.25-.475 0-.763.337-.287.338-.212.788.425 2.3 1.988 3.263 1.562.962 3.162.862Z"/></svg>

<svg xmlns="http://www.w3.org/2000/svg" height="24" width="24"><path d="M12 22.725Q8.575 22.725 5.925 20.312Q3.275 17.9 3.275 13.8Q3.275 11.375 5.138 8.438Q7 5.5 10.725 2.125Q10.975 1.9 11.312 1.787Q11.65 1.675 12 1.675Q12.35 1.675 12.688 1.787Q13.025 1.9 13.275 2.125Q17 5.5 18.863 8.438Q20.725 11.375 20.725 13.8Q20.725 17.9 18.088 20.312Q15.45 22.725 12 22.725ZM12 19.7Q14.425 19.7 16.062 18.05Q17.7 16.4 17.7 13.8Q17.7 12.175 16.288 10.012Q14.875 7.85 12 5.1Q9.125 7.85 7.713 10.012Q6.3 12.175 6.3 13.8Q6.3 16.4 7.938 18.05Q9.575 19.7 12 19.7ZM12 13.75Q12 13.75 12 13.75Q12 13.75 12 13.75Q12 13.75 12 13.75Q12 13.75 12 13.75Q12 13.75 12 13.75Q12 13.75 12 13.75Q12 13.75 12 13.75Q12 13.75 12 13.75ZM12.35 18.875Q12.775 18.85 13.062 18.562Q13.35 18.275 13.35 17.875Q13.35 17.45 13.038 17.15Q12.725 16.85 12.275 16.875Q11.1 16.95 10.275 16.337Q9.45 15.725 9.175 14.45Q9.125 14.125 8.863 13.875Q8.6 13.625 8.175 13.625Q7.7 13.625 7.412 13.962Q7.125 14.3 7.2 14.75Q7.625 17.05 9.188 18.013Q10.75 18.975 12.35 18.875Z"/></svg>
